X: 1
T: Barbara's Strathspey
C: Mady Newfield
R: strathspey
Z: 2010 John Chambers <jc:trillian.mit.edu>
B: RSCDS 46-4 p.9
M: C
L: 1/16
K: F
D3E \
|:"Dm"F3E F3d "F"c3A F3A | "C"G3E C3E "E/C"G4 A3G \
| "D/Bb"F3G F3D "Gm"GF3 ED3 | "A"A4 A,4 "C#/A"[A4E4] "Dm"[F3D4]G |
| "F"A3F A,3A "C"G4 "Am"A3E | "Dm"F3G A3F "Gm"B4 A3G \
| "A/F"A3F c3A "C"G4 E3C | "Bb"DF3 "C7"F3G "F"F4 F3G |
| "F"A3F C3A "C"[G4E4] "C#/A"A3E | "Dm"F3D A,3F "C#/A"[E4A,4] "Dm"[F3A,4]E \
| "Bb"DF3 F3D "A/F"C3F Ac3 | "Gm"c3B A3B "C7"G4 F3G |
| "F"A3F c3A "E/C"G4 F3E | "Dm"F3E D3G "Bb"F4 E3D \
| "A/F"C3A c3A "C"G4 "Am"E3C |1 "Gm"[DB,4]F3 "C7"[F3B,4]G "F"[F4A,4] "A7"DE :|2 "Gm"[DB,4]F3 "C7"[FB,4]3G "F"[F4A,4] |]
%%center Book46/4604-BarbarasStrathspey-JC.abc

%%sep 1 1 500
%%sep 1 1 500

